!!!COM: Robert Schumann
!!!CNT: Deutscher
!!!TXO: Deutsche 
!!!OTL: Ein Ju2ngling liebt ein Ma2dchen
!!!OPR: Dichterliebe
!!!OPS: Opus 48
!!!ONM: No. 11
!!!LYR: Heine
!!!ENC: Brian Bice
!!!YOR: Sa2mtliche Lieder, vol. 1, C.F. Peters
!!!ODT: 1840/
!!NB: Vocal melody and text only encoded.
**kern	**silbe
*clefG2	*
*k[b-e-a-]	*
*M2/4	*
=4	=4
4r	.
8r	.
{8b-	{Ein
=5	=5
8b-	Ju2ng-
8g	-ling
8g	liebt
8b-	ein
=6	=6
4b-	Ma2d-
8f}	-chen,}
{8b-	{die
=7	=7
8b-	hat
16b-	ei-
16b-	-nen
8ee-	An-
16ee-	-dern
16ee-	er-
=8	=8
4dd}	-wa2hlt;}
8r	.
{8cc	{der
=9	=9
8cc	An-
8a-	-dre
8a-	liebt
16cc	ei-
16cc	-ne
=10	=10
4cc	An-
8g}	-dre}
{8g	{und
=11	=11
8a-	hat
16a-	sich
16a-	mit
8b-	die-
16b-	-ser
16b-	ver-
=12	=12
4e-}	-ma2hlt.}
4r	.
=16	=16
4r	.
8r	.
{8f	{Das
=17	=17
8f	Ma2d-
8f	-chen
8f	nimmt
8ee-	aus
=18	=18
4dd	A2r-
8b-}	-ger}
{8b-	{den
=19	=19
8cc	er-
8cc	-sten
8dd	be-
8dd	-sten
=20	=20
4b-}	Mann,}
{4ff	{der
=21	=21
8dd	ihr
16dd	in
16dd	den
8cc	Weg
8cc	ge-
=22	=22
8b-	-lau-
8b-}	-fen;}
8r	.
{8ff	{der
=23	=23
8dd	Ju2ng-
16dd	-ling
16dd	ist
8cc	u2-
8cc	-bel
=24	=24
4b-}	d'ran.}
8r	.
{8b-	{Es
=25	=25
8b-	ist
16B-	ei-
16B-	-ne
8B-	al-
16B-	-te
16B-	Ge-
=26	=26
4b-	-schich-
8e-}	-te,}
{8b-	{doch
=27	=27
8.b-	bleibt
16f	sie
8f	im-
8f	-mer
=28	=28
4b-}	neu;}
8r	.
{8b-	{und
=29	=29
8dd-	wem
8dd-	sie
8dd-	just
8dd-	pas-
=30	=30
4dd-	-sie-
8b-}	-ret,}
{8ddn	{dem
=31	=31
8dd	bricht
8dd	das
8dd	Herz
8ee-	ent-
=32	=32
4ee-}	-zwei.}
4r	.
*-	*-
